src/static/logos/visaelectron.svg

<?xml version="1.0" encoding="UTF-8"?>
<svg width="256px" height="114px" viewBox="0 0 256 114" version="1.1" xmlns="http://www.w3.org/2000/svg" xmlns:xlink="http://www.w3.org/1999/xlink" preserveAspectRatio="xMidYMid">
    <g>
        <path d="M97.196506,1.45967206 L63.6812585,81.4179905 L41.8139653,81.4179905 L25.3195076,17.6043316 C24.3207846,13.6829954 23.4511928,12.239669 20.4076212,10.5822138 C15.4336211,7.88026765 7.2199009,5.3532206 0,3.78076314 L0.487102212,1.45967206 L35.6908618,1.45967206 C40.1712214,1.45967206 44.205343,4.44276447 45.2302192,9.6080094 L53.9457525,55.881085 L75.461613,1.45967206 L97.196506,1.45967206 Z M126.757726,1.45967206 L109.653573,81.4179905 L88.96644,81.4179905 L106.070593,1.45967206 L126.757726,1.45967206 Z M182.872555,55.312254 C182.959187,34.2132094 153.698728,33.0428564 153.889973,23.6146498 C153.96026,20.7492465 156.689994,17.6975021 162.665986,16.9178117 C165.626194,16.5353221 173.803954,16.2296572 183.067069,20.4975226 L186.690913,3.53230832 C181.713643,1.73264545 175.309393,0 167.342493,0 C146.892373,0 132.506513,10.8617255 132.392093,26.4277468 C132.258058,37.9416662 142.667007,44.3589927 150.494968,48.1936967 C158.558308,52.110129 161.261889,54.627369 161.224294,58.1269855 C161.167084,63.4916485 154.785718,65.8666805 148.852225,65.954947 C138.448179,66.120039 132.416611,63.1434845 127.606069,60.9024875 L123.851459,78.4299945 C128.691424,80.6481075 137.611278,82.575267 146.849875,82.673341 C168.589672,82.673341 182.808807,71.935843 182.872555,55.312254 L182.872555,55.312254 Z M236.873883,81.4179905 L256,81.4179905 L239.289779,1.45967206 L221.642949,1.45967206 C217.662768,1.45967206 214.318435,3.76932114 212.834245,7.3212443 L181.793738,81.4179905 L203.517189,81.4179905 L207.825918,69.474179 L234.366451,69.474179 L236.873883,81.4179905 Z M213.782296,53.0892375 L224.675078,23.0621648 L230.932217,53.0892375 L213.782296,53.0892375 Z M153.232385,103.427165 L144.82742,103.427165 L144.82742,111.250222 L154.229474,111.250222 L154.229474,113.60237 L141.994708,113.60237 L141.994708,91.898534 L153.747275,91.898534 L153.747275,94.250682 L144.82742,94.250682 L144.82742,101.107708 L153.232385,101.107708 L153.232385,103.427165 Z M158.571711,90.740604 L161.404424,90.740604 L161.404424,113.601716 L158.571711,113.601716 L158.571711,90.740604 Z M168.550278,106.324115 C168.614026,110.157184 171.029923,111.734545 173.893691,111.734545 C175.923829,111.734545 177.17918,111.379843 178.210594,110.930336 L178.725484,112.958839 C177.726761,113.408346 175.989212,113.955928 173.507933,113.955928 C168.712101,113.955928 165.846698,110.768514 165.846698,106.067487 C165.846698,101.36646 168.614026,97.695214 173.154865,97.695214 C178.274342,97.695214 179.595076,102.139613 179.595076,105.005016 C179.595076,105.583654 179.562385,106.002104 179.497002,106.324115 L168.550278,106.324115 L168.550278,106.324115 Z M176.857169,104.295612 C176.88986,102.525372 176.116708,99.7237165 172.929294,99.7237165 C170.0312,99.7237165 168.806906,102.332492 168.581335,104.295612 L176.857169,104.295612 Z M195.01137,113.054298 C194.270909,113.409 192.628165,113.956581 190.535914,113.956581 C185.834888,113.956581 182.776605,110.769168 182.776605,106.002758 C182.776605,101.205292 186.058824,97.6958675 191.147244,97.6958675 C192.821045,97.6958675 194.301966,98.1126835 195.075119,98.532768 L194.432732,100.690402 C193.754385,100.3357 192.691914,99.9483065 191.147244,99.9483065 C187.572437,99.9483065 185.642009,102.62083 185.642009,105.84257 C185.642009,109.448434 187.959831,111.669816 191.050804,111.669816 C192.660857,111.669816 193.723329,111.284058 194.527537,110.929356 L195.01137,113.054298 Z M202.959146,94.282229 L202.959146,98.0172245 L207.014517,98.0172245 L207.014517,100.173224 L202.959146,100.173224 L202.959146,108.578188 C202.959146,110.511887 203.506728,111.605414 205.084089,111.605414 C205.855606,111.605414 206.308383,111.541666 206.726833,111.4109 L206.855964,113.570169 C206.308383,113.763048 205.438791,113.955928 204.343628,113.955928 C203.022894,113.955928 201.960423,113.504786 201.285345,112.76596 C200.512193,111.894734 200.190183,110.511887 200.190183,108.676263 L200.190183,100.173224 L197.774286,100.173224 L197.774286,98.0172245 L200.190183,98.0172245 L200.190183,95.1191295 L202.959146,94.282229 Z M210.972468,102.879746 C210.972468,101.044123 210.938142,99.466762 210.843337,98.0168975 L213.322981,98.0168975 L213.452112,101.107872 L213.546918,101.107872 C214.256321,99.0156205 215.993871,97.694887 217.893242,97.694887 C218.184196,97.694887 218.409767,97.7275785 218.668029,97.758635 L218.668029,100.432794 C218.377075,100.367411 218.089391,100.367411 217.700363,100.367411 C215.706186,100.367411 214.287378,101.848332 213.901619,103.974909 C213.837871,104.360668 213.80518,104.842866 213.80518,105.295643 L213.80518,113.602534 L210.972468,113.602534 L210.972468,102.879746 Z M236.08324,105.680584 C236.08324,111.444082 232.057291,113.956418 228.322296,113.956418 C224.13616,113.956418 220.853941,110.86381 220.853941,105.938846 C220.853941,100.753987 224.297982,97.695704 228.580559,97.695704 C233.056014,97.695704 236.08324,100.946866 236.08324,105.680584 Z M223.750401,105.842407 C223.750401,109.255392 225.682464,111.831475 228.451427,111.831475 C231.156643,111.831475 233.183512,109.286449 233.183512,105.777024 C233.183512,103.137192 231.864412,99.819012 228.515176,99.819012 C225.200266,99.819012 223.750401,102.911621 223.750401,105.842407 Z M240.424989,102.234745 C240.424989,100.593636 240.390662,99.3055935 240.295858,98.017551 L242.806558,98.017551 L242.968381,100.593636 L243.032129,100.593636 C243.805282,99.143771 245.608214,97.6955405 248.184298,97.6955405 C250.340297,97.6955405 253.689534,98.983583 253.689534,104.326996 L253.689534,113.601553 L250.856822,113.601553 L250.856822,104.61795 C250.856822,102.107249 249.923482,100.013363 247.250958,100.013363 C245.415335,100.013363 243.96547,101.334096 243.452214,102.911458 C243.321449,103.26616 243.2577,103.748358 243.2577,104.232191 L243.2577,113.601553 L240.424989,113.601553 L240.424989,102.234745 Z" fill="#1A1F71"></path>
    </g>
</svg>

<svg width="256" height="114" xmlns="http://www.w3.org/2000/svg" preserveAspectRatio="xMidYMid"><path d="M97.197 1.46L63.68 81.418H41.814L25.32 17.604c-1-3.921-1.869-5.364-4.912-7.022C15.434 7.88 7.22 5.353 0 3.781L.487 1.46h35.204c4.48 0 8.514 2.983 9.54 8.148l8.715 46.273L75.462 1.46h21.735zm29.56 0l-17.103 79.958H88.966L106.071 1.46h20.687zm56.116 53.852c.086-21.099-29.174-22.27-28.983-31.697.07-2.866 2.8-5.917 8.776-6.697 2.96-.383 11.138-.688 20.401 3.58l3.624-16.966C181.714 1.732 175.309 0 167.342 0c-20.45 0-34.835 10.862-34.95 26.428-.134 11.514 10.275 17.931 18.103 21.766 8.063 3.916 10.767 6.433 10.73 9.933-.058 5.365-6.44 7.74-12.373 7.828-10.404.165-16.435-2.812-21.246-5.053l-3.755 17.528c4.84 2.218 13.76 4.145 22.999 4.243 21.74 0 35.959-10.737 36.023-27.36zm54 26.106H256L239.29 1.46h-17.647c-3.98 0-7.325 2.31-8.809 5.861l-31.04 74.097h21.723l4.309-11.944h26.54l2.508 11.944zm-23.09-28.329l10.892-30.027 6.257 30.027h-17.15zm-60.55 50.338h-8.406v7.823h9.402v2.352h-12.234V91.9h11.752v2.352h-8.92v6.857h8.405v2.32zm5.339-12.686h2.832v22.86h-2.832v-22.86zm9.978 15.583c.064 3.833 2.48 5.41 5.344 5.41 2.03 0 3.285-.354 4.317-.804l.514 2.029c-.998.45-2.736.997-5.217.997-4.796 0-7.661-3.187-7.661-7.889 0-4.7 2.767-8.372 7.308-8.372 5.12 0 6.44 4.445 6.44 7.31 0 .579-.033.997-.098 1.32H168.55zm8.307-2.028c.033-1.77-.74-4.572-3.928-4.572-2.898 0-4.122 2.608-4.348 4.572h8.276zm18.154 8.758c-.74.355-2.383.903-4.475.903-4.701 0-7.76-3.188-7.76-7.954 0-4.798 3.283-8.307 8.371-8.307 1.674 0 3.155.417 3.928.837l-.642 2.157c-.679-.354-1.741-.742-3.286-.742-3.575 0-5.505 2.673-5.505 5.895 0 3.605 2.318 5.827 5.409 5.827 1.61 0 2.672-.386 3.477-.74l.483 2.124zm7.948-18.772v3.735h4.056v2.156h-4.056v8.405c0 1.934.548 3.027 2.125 3.027.772 0 1.224-.063 1.643-.194l.129 2.16c-.548.192-1.417.385-2.512.385-1.321 0-2.384-.451-3.059-1.19-.773-.871-1.095-2.254-1.095-4.09v-8.503h-2.416v-2.156h2.416V95.12l2.77-.837zm8.013 8.598c0-1.836-.034-3.413-.129-4.863h2.48l.13 3.09h.094c.71-2.091 2.447-3.412 4.346-3.412.291 0 .517.033.775.064v2.674c-.29-.066-.579-.066-.968-.066-1.994 0-3.413 1.481-3.798 3.608a8.54 8.54 0 00-.097 1.32v8.308h-2.833V102.88zm25.111 2.8c0 5.764-4.026 8.276-7.76 8.276-4.187 0-7.47-3.092-7.47-8.017 0-5.185 3.445-8.243 7.728-8.243 4.475 0 7.502 3.25 7.502 7.985zm-12.333.162c0 3.413 1.932 5.99 4.701 5.99 2.706 0 4.733-2.546 4.733-6.055 0-2.64-1.32-5.958-4.669-5.958-3.315 0-4.765 3.093-4.765 6.023zm16.675-3.607c0-1.641-.034-2.93-.13-4.217h2.512l.161 2.576h.064c.773-1.45 2.576-2.898 5.152-2.898 2.156 0 5.506 1.288 5.506 6.631v9.275h-2.833v-8.984c0-2.51-.934-4.605-3.606-4.605-1.836 0-3.286 1.321-3.799 2.898-.13.355-.194.837-.194 1.321v9.37h-2.833v-11.367z" fill="#1A1F71"/></svg>
